icons/anchor.svg

<svg width="24" height="24" viewBox="0 0 24 24" fill="none" xmlns="http://www.w3.org/2000/svg">
<path d="M12 22V10M19 12C20.0093 12.6728 20.9907 12.6728 22 12C22 17.4467 17.4467 22 12 22C6.55333 22 2 17.4467 2 12C3.00925 12.6728 3.99075 12.6728 5 12M12 6.44444V10M12 6.44444C13.2104 6.44444 14.2222 5.43259 14.2222 4.22222C14.2222 3.01185 13.2104 2 12 2C10.7896 2 9.77778 3.01185 9.77778 4.22222C9.77778 5.43259 10.7896 6.44444 12 6.44444ZM12 10C13.259 10.6295 14.741 10.6295 16 10M12 10C10.741 10.6295 9.25903 10.6295 8 10" stroke="black" stroke-width="2" stroke-linecap="round" stroke-linejoin="round"/>
</svg>

<svg xmlns="http://www.w3.org/2000/svg" width="24" height="24" viewBox="0 0 24 24" fill="none" stroke="currentColor" stroke-width="2" stroke-linecap="round" stroke-linejoin="round">
<path d="M12 22V10m7 2c1.01.673 1.99.673 3 0 0 5.447-4.553 10-10 10S2 17.447 2 12c1.01.673 1.99.673 3 0m7-5.556V10m0-3.556a2.244 2.244 0 0 0 2.222-2.222A2.244 2.244 0 0 0 12 2a2.244 2.244 0 0 0-2.222 2.222A2.244 2.244 0 0 0 12 6.444M12 10a4.47 4.47 0 0 0 4 0m-4 0a4.47 4.47 0 0 1-4 0"/>
</svg>
